svgs/wallpaper_engine.svg

<?xml version="1.0" encoding="UTF-8" standalone="no"?>
<svg
   xml:space="preserve"
   width="192"
   height="192"
   fill="none"
   viewBox="0 0 192 192"
   version="1.1"
   id="svg10"
   sodipodi:docname="wallpaper_engine.svg"
   inkscape:version="1.2.2 (b0a8486541, 2022-12-01)"
   xmlns:inkscape="http://www.inkscape.org/namespaces/inkscape"
   xmlns:sodipodi="http://sodipodi.sourceforge.net/DTD/sodipodi-0.dtd"
   xmlns="http://www.w3.org/2000/svg"
   xmlns:svg="http://www.w3.org/2000/svg"><defs
     id="defs14"><inkscape:path-effect
       effect="fillet_chamfer"
       id="path-effect5651"
       is_visible="true"
       lpeversion="1"
       nodesatellites_param="F,0,0,1,0,0,0,1 @ F,0,0,1,0,0,0,1 @ F,0,0,1,0,0,0,1 @ F,0,0,1,0,0,0,1 @ F,0,0,1,0,0,0,1"
       unit="px"
       method="auto"
       mode="F"
       radius="6"
       chamfer_steps="1"
       flexible="false"
       use_knot_distance="true"
       apply_no_radius="true"
       apply_with_radius="true"
       only_selected="false"
       hide_knots="false" /><inkscape:path-effect
       effect="offset"
       id="path-effect1163"
       is_visible="true"
       lpeversion="1.2"
       linejoin_type="miter"
       unit="mm"
       offset="0.3"
       miter_limit="4"
       attempt_force_join="false"
       update_on_knot_move="true" /><inkscape:path-effect
       effect="fillet_chamfer"
       id="path-effect1161"
       is_visible="true"
       lpeversion="1"
       nodesatellites_param="F,0,0,1,0,6,0,25 @ F,0,0,1,0,6,0,25 @ F,0,0,1,0,6,0,25 @ F,0,0,1,0,6,0,25"
       unit="px"
       method="auto"
       mode="F"
       radius="6"
       chamfer_steps="1"
       flexible="false"
       use_knot_distance="true"
       apply_no_radius="true"
       apply_with_radius="true"
       only_selected="false"
       hide_knots="false" /><filter
       id="filter3864"
       x="-0.046153847"
       y="-0.080000001"
       width="1.0923077"
       height="1.16"><feGaussianBlur
         stdDeviation="0.2"
         id="feGaussianBlur3866" /></filter></defs><sodipodi:namedview
     id="namedview12"
     pagecolor="#ffffff"
     bordercolor="#666666"
     borderopacity="1.0"
     inkscape:showpageshadow="2"
     inkscape:pageopacity="0.0"
     inkscape:pagecheckerboard="0"
     inkscape:deskcolor="#d1d1d1"
     showgrid="false"
     inkscape:zoom="3.978212"
     inkscape:cx="82.700468"
     inkscape:cy="84.460053"
     inkscape:window-width="1920"
     inkscape:window-height="1011"
     inkscape:window-x="0"
     inkscape:window-y="0"
     inkscape:window-maximized="1"
     inkscape:current-layer="svg10" /><style
     id="style313">.s0{fill:#2e3436;filter:url(#filter3864);opacity:0.3;}.s1{fill:#4e9a06;stroke-linecap:round;stroke:#316004;}</style><rect
     style="display:inline;opacity:1;fill:#000000;fill-opacity:1;stroke-width:1;stroke-dasharray:none"
     id="rect1159"
     width="22.641195"
     height="16.978968"
     x="84.679367"
     y="43.770443"
     ry="5.659656" /><rect
     style="display:inline;fill:#000000;fill-opacity:1;stroke-width:0.999996"
     id="rect1159-2"
     width="22.639912"
     height="16.979933"
     x="124.41947"
     y="-52.249973"
     ry="5.6599779"
     transform="matrix(0.70714696,0.7070666,-0.70714696,0.7070666,0,0)" /><rect
     style="display:inline;fill:#000000;fill-opacity:1;stroke-width:0.999996"
     id="rect1159-9"
     width="22.638624"
     height="16.980896"
     x="84.680794"
     y="-148.23557"
     ry="5.6602988"
     transform="rotate(90)" /><rect
     style="display:inline;fill:#000000;fill-opacity:1;stroke-width:0.999996"
     id="rect1159-0"
     width="22.641195"
     height="16.978968"
     x="-107.32057"
     y="-148.22977"
     ry="5.659656"
     transform="scale(-1)" /><rect
     style="display:inline;fill:#000000;fill-opacity:1;stroke-width:0.999996"
     id="rect1159-2-9"
     width="22.639912"
     height="16.979933"
     x="-147.10966"
     y="-52.265587"
     ry="5.6599779"
     transform="matrix(-0.70714696,-0.7070666,0.70714696,-0.7070666,0,0)" /><rect
     style="display:inline;fill:#000000;fill-opacity:1;stroke-width:0.999996"
     id="rect1159-9-3"
     width="22.638624"
     height="16.980896"
     x="-107.3194"
     y="43.764393"
     ry="5.6602988"
     transform="rotate(-90)" /><path
     id="rect5096"
     style="display:inline;opacity:1;stroke:#000000;stroke-width:12;stroke-linecap:round;stroke-linejoin:round;stroke-dasharray:none"
     d="M 95.999969,60.21596 H 30 v 101.77248 h 101.78404 v -6.7923"
     sodipodi:nodetypes="ccccc"
     inkscape:path-effect="#path-effect5651"
     inkscape:original-d="M 95.999969,60.21596 H 30 v 101.77248 h 101.78404 v -6.7923" /><path
     id="rect5096-0"
     style="display:inline;opacity:1;stroke:#000000;stroke-width:12.0001;stroke-linecap:round;stroke-linejoin:round"
     d="M 95.999969,131.78409 H 161.99995 V 30.011607 H 60.2159 l -0.03829,6.808111"
     sodipodi:nodetypes="ccccc" /><path
     id="path907"
     style="fill:#000000;fill-opacity:1;stroke-width:0.999999;stroke-linejoin:round;stroke-dasharray:none"
     d="M 96 54.216797 A 41.784042 41.784042 0 0 0 66.84375 66.216797 L 96 66.216797 C 112.3781 66.216797 125.7832 79.621883 125.7832 96 C 125.7832 102.65109 123.57234 108.81135 119.84961 113.7832 L 133.77539 113.7832 A 41.784042 41.784042 0 0 0 137.7832 96 A 41.784042 41.784042 0 0 0 96 54.216797 z M 58.224609 78.216797 A 41.784042 41.784042 0 0 0 54.216797 96 A 41.784042 41.784042 0 0 0 96 137.7832 A 41.784042 41.784042 0 0 0 125.15625 125.7832 L 96 125.7832 C 79.621883 125.7832 66.216797 112.3781 66.216797 96 C 66.216797 89.348903 68.427664 83.188644 72.150391 78.216797 L 58.224609 78.216797 z M 96 78.216797 C 86.10714 78.216797 78.216797 86.10714 78.216797 96 C 78.216797 105.89286 86.10714 113.7832 96 113.7832 C 105.89286 113.7832 113.7832 105.89286 113.7832 96 C 113.7832 86.10714 105.89286 78.216797 96 78.216797 z " /></svg>

<svg xml:space="preserve" width="192" height="192" fill="none" viewBox="0 0 192 192" version="1.1" id="svg10" xmlns="http://www.w3.org/2000/svg"><defs id="defs14"><filter id="filter3864" x="-.046" y="-.08" width="1.092" height="1.16"><feGaussianBlur stdDeviation=".2" id="feGaussianBlur3866"/></filter></defs><style id="style313">.s0{fill:#2e3436;filter:url(#filter3864);opacity:.3}.s1{fill:#4e9a06;stroke-linecap:round;stroke:#316004}</style><rect style="display:inline;opacity:1;fill:#000;fill-opacity:1;stroke-width:1;stroke-dasharray:none" id="rect1159" width="22.641" height="16.979" x="84.679" y="43.77" ry="5.66"/><rect style="display:inline;fill:#000;fill-opacity:1;stroke-width:.999996" id="rect1159-2" width="22.64" height="16.98" x="124.419" y="-52.25" ry="5.66" transform="rotate(44.997)"/><rect style="display:inline;fill:#000;fill-opacity:1;stroke-width:.999996" id="rect1159-9" width="22.639" height="16.981" x="84.681" y="-148.236" ry="5.66" transform="rotate(90)"/><rect style="display:inline;fill:#000;fill-opacity:1;stroke-width:.999996" id="rect1159-0" width="22.641" height="16.979" x="-107.321" y="-148.23" ry="5.66" transform="scale(-1)"/><rect style="display:inline;fill:#000;fill-opacity:1;stroke-width:.999996" id="rect1159-2-9" width="22.64" height="16.98" x="-147.11" y="-52.266" ry="5.66" transform="rotate(-135.003)"/><rect style="display:inline;fill:#000;fill-opacity:1;stroke-width:.999996" id="rect1159-9-3" width="22.639" height="16.981" x="-107.319" y="43.764" ry="5.66" transform="rotate(-90)"/><path id="rect5096" style="display:inline;opacity:1;stroke:#000;stroke-width:12;stroke-linecap:round;stroke-linejoin:round;stroke-dasharray:none" d="M96 60.216H30v101.772h101.784v-6.792"/><path id="rect5096-0" style="display:inline;opacity:1;stroke:#000;stroke-width:12.0001;stroke-linecap:round;stroke-linejoin:round" d="M96 131.784h66V30.012H60.216l-.038 6.808"/><path id="path907" style="fill:#000;fill-opacity:1;stroke-width:.999999;stroke-linejoin:round;stroke-dasharray:none" d="M96 54.217a41.784 41.784 0 0 0-29.156 12H96c16.378 0 29.783 13.405 29.783 29.783 0 6.651-2.21 12.811-5.933 17.783h13.925A41.784 41.784 0 0 0 137.783 96 41.784 41.784 0 0 0 96 54.217zm-37.775 24A41.784 41.784 0 0 0 54.217 96 41.784 41.784 0 0 0 96 137.783a41.784 41.784 0 0 0 29.156-12H96c-16.378 0-29.783-13.405-29.783-29.783 0-6.651 2.21-12.811 5.933-17.783H58.225zm37.775 0c-9.893 0-17.783 7.89-17.783 17.783s7.89 17.783 17.783 17.783 17.783-7.89 17.783-17.783S105.893 78.217 96 78.217z"/></svg>
